X: 28579
T: Murphy's Hound
R: reel
M: 4/4
K: Cmajor
c|:AGED ECCD|EGAB c2 Bc|AGED CDEG|AcGE D3 d:|
Ad (3ddd eddc|AddB c2 Bc|Ad (3ddd eddB|cAGE D2 EG|
Ad (3ddd eddc|AddB c2 Bc|ecdB cBAG|EGAB c2 Bc||

